X: 26022
T: Mazurka Des Écoliers De Saint Genest
R: mazurka
M: 3/4
K: Dminor
|:A2 A>B c>d|A2 A2 B>A|G2 A>G F>E|F2 D>D E>D|
A2 AB cd|A2 A2 BA|G2 A>G F>E|D3:|
|:B2 BA Bc|d2 d2 cB|A2 AG AB|A2 AD dc|
B3 A Bc|d2 d2 cB|A2 AF EF|1 D3 E3:|2 D3 D3||

